!!!COM: Schubert, Franz
!!!CNT: Deutscher
!!!TXO: Deutsch
!!!OTL: "Der Wegweiser"
!!!OPR: Winterreise
!!!LYR: Mu2ller, Wilhelm
!!!OPS: Opus 89
!!!ONM: No. 20
!!!ODT: 1827/
!!NB: Vocal melody only encoded.
**kern	**silbe
*clefG2	*
*k[b-e-]	*
*M2/4	*
*MM[massig]	*
=5	=5
4r	.
8r	.
{16g	{Was
16a	ver-
=6	=6
8b-	-meid'
8b-	ich
8b-	denn
8b-	die
=7	=7
4b-	We-
8g}	-ge,}
{16a	{wo
16b-	die
=8	=8
8cc	an-
8b-	-dern
8a	Wan-
8g	-drer
=9	=9
4a}	gehn,}
4r	.
=10	=10
4r	.
8r	.
{16a	{su-
16b-	-che
=11	=11
8cc	mir
8cc	ver-
8cc	-steck-
8cc	-te
=12	=12
4cc	Ste-
8a}	-ge}
{16g	{durch
16a	ver-
=13	=13
8b-	-schnei-
8b-	-te
8b-	Fel-
8b-	-sen-
=14	=14
(4b-	-ho2hn?
8g)}	|}
{16g	{su-
16g	-che
=15	=15
8a-	mir
8a-	ver-
16g	-steck-
16cc	|
16cc	-te
16b-	|
=16	=16
4a-	Ste-
8g}	-ge}
{16g	{durch
16g	ver-
=17	=17
16.g	-schnei-
32an	|
16.b-	-te
32cc	|
8.dd	Fel-
16f#	-sen-
=18	=18
16.g	-ho2hn,
32a	|
16.b-	durch
32cc	|
8.dd	Fel-
16f#	-sen-
=19	=19
4g}	-ho2hn?}
4r	.
=21	=21
4r	.
8r	.
{16g	{Ha-
16a	-be
=22	=22
*k[bncnf#]	*
8b	ja
8b	doch
8b	nichts
8b	be-
=23	=23
4b	-gan-
8g}	-gen,}
{16a	{dass
16b	ich
=24	=24
8cc	Men-
8b	-schen
8a	soll-
8g	-te
=25	=25
4.a}	scheun,}
{16b	{dass
16c	ich
=26	=26
8dd	Men-
8cc	-schen
8b	soll-
8a	-te
=27	=27
4b}	scheun,}
8r	.
{16b	{welch
16b	ein
=28	=28
8.ee	tho2-
16ee	-rich-
8ee	-tes
8ee	Ver-
=29	=29
4dd#	-lan-
8b}	-gen}
{16cc	{treibt
16b	mich
=30	=30
8ee	in
8ee	die
8ee	Wu2-
8ee	-ste-
=31	=31
8dd#	-nei-
8b}	-en,}
{8.cc	{treibt
16b	mich
=32	=32
8a	in
8g	die
8f#	Wu2-
8a#	-ste-
=33	=33
4b}	nei'n?}
4r	.
=40	=40
4r	.
8r	.
{16g	{Wei-
16a	-ser
=41	=41
*k[fnb-e-]	*
8b-	ste-
8b-	-hen
8b-	auf
8b-	den
=42	=42
4b-	We-
8g}	-gen,}
{16a	{wei-
16b-	-sen
=43	=43
8cc	auf
8b-	die
8a	Sta2-
8g	-dte
=44	=44
4a}	zu,}
4r	.
=45	=45
4r	.
8r	.
{16a	{und
16b-	ich
=46	=46
8cc	wan-
8cc	-dre
8cc	son-
8cc	-der
=47	=47
4cc	Ma-
8a}	-ssen,}
{16g	{oh-
16a	-ne
=48	=48
8b-	Ruh,
8b-	und
8.gg-	su-
16ff	-che
=49	=49
4.een}	Ruh,}
{16g	{und
16g	ich
=50	=50
8a-	wan-
8a-	-dre
16g	son-
16cc	|
16cc	-der
16b-	|
=51	=51
4a-	Ma-
8g}	-ssen,}
{16cc	{oh-
16ee-	-ne
=52	=52
8dd	Ruh'
8gg	und
8.a	su-
16dd	-che
=53	=53
8b-	Ruh,
8gg	und
8.a	su-
16dd	-che
=54	=54
4g}	Ruh.}
4r	.
=56	=56
4r	.
8r	.
{16g	{Ei-
16g	-nen
=57	=57
8g	Wei-
8g	-ser
8g	seh'
8g	ich
=58	=58
4g	ste-
8g}	-hen}
{16g	{un-
16g	-ver-
=59	=59
8g	-ru2ckt
8g	vor
8g	mei-
8g	-nem
=60	=60
4g}	Blick;}
8r	.
{16g	{ei-
16g	-ne
=61	=61
8b-	Stra-
8b-	-sse
8b-	muss
8b-	ich
=62	=62
4b-	ge-
8b-}	-hen,}
{16b-	{ei-
16b-	-ne
=63	=63
8dd-	Stra-
8dd-	-sse
8dd-	muss
8dd-	ich
=64	=64
4dd-	ge-
8dd-}	-hen,}
{16dd-	{die
16dd-	noch
=65	=65
[2ddn	kei-
=66	=66
8ddn]	|
16cc	-ner
16a-	|
8g	ging
8f#	zu-
=67	=67
4g}	-ru2ck.}
4r	.
=68	=68
4r	.
8r	.
{16g	{Ei-
16g	-nen
=69	=69
8g	Wei-
8g	-ser
8g	seh'
8g	ich
=70	=70
8g	ste-
8g}	-hen}
8r	.
{16g	{un-
16g	-ver-
=71	=71
8g	-ru2ckt
8g	vor
8g	mei-
8g	-nem
=72	=72
4g}	Blick;}
8r	.
{16g	{ei-
16g	-ne
=73	=73
8b-	Stra-
8b-	-sse
8b-	muss
8b-	ich
=74	=74
8b-	ge-
8b-}	-hen,}
8r	.
{16b-	{die
16b-	noch
=75	=75
(8a	kei-
[4.dd)	|
=76	=76
8dd]	|
16cc	-ner
16a-	|
8g	ging
8f#	zu-
=77	=77
4g}	-ru2ck,}
4r	.
=78	=78
{4g	{die
4g	noch
=79	=79
4b-	kei-
4g	-ner
=80	=80
4a	ging
4f#	zu-
=81	=81
2b}	-ru2ck.}
*-	*-
